X: 951
T: All Hands Around
R: reel
M: 4/4
K: Gmajor
|:G2Be d2Be|d2Be dBg2|GBde dB B2|AcBA GEDE|
G2Be d2Be|d2Be dBg2|GBde dB B2|AcBA G2z2:|
|:b2gb a2fa|gfeg fBB2|b2gb a2gf|efga b2ga|
b2gb a2fa|gfeg fBB2|Bdef bagf|1 g2fg efga:|2 g2fg edBA||

